build/system/ArrowCrossSolid.svg

<svg xmlns="http://www.w3.org/2000/svg" fill="none" viewBox="0 0 24 24" focusable="false"><path d="M0 0H24V24H0z"/><path fill="#74767B" fill-rule="evenodd" d="M5.63604 18.364C2.12132 14.8492 2.12132 9.15076 5.63604 5.63604C9.15076 2.12132 14.8492 2.12132 18.364 5.63604C21.8787 9.15076 21.8787 14.8492 18.364 18.364C14.8492 21.8787 9.15076 21.8787 5.63604 18.364ZM15.171 15.0605C14.8104 15.0393 14.4905 14.7793 14.5047 14.4258L14.5047 10.3361L9.59196 15.2488C9.33812 15.5027 8.92656 15.5027 8.67272 15.2488C8.41888 14.995 8.41888 14.5834 8.67272 14.3296L13.5804 9.42186L9.53798 9.42186C9.17735 9.44307 8.89233 9.1677 8.87112 8.80707C8.85698 8.45352 9.12078 8.0929 9.48141 8.07168L15.1145 8.07168C15.5317 8.05047 15.8711 8.38988 15.8499 8.80707L15.8499 14.4382C15.8348 14.8139 15.5317 15.0738 15.171 15.0605Z"/></svg>

<svg xmlns="http://www.w3.org/2000/svg" fill="none" viewBox="0 0 24 24" focusable="false"><path fill="#74767B" fill-rule="evenodd" d="M5.63 18.36a9.01 9.01 0 0 1 0-12.73 9.01 9.01 0 0 1 12.73 0 9.01 9.01 0 0 1 0 12.73 9.01 9.01 0 0 1-12.73 0m9.54-3.3c-.36-.03-.68-.29-.67-.64v-4.09l-4.91 4.91a.64.64 0 0 1-.92 0 .64.64 0 0 1 0-.92l4.91-4.9H9.53c-.36.02-.64-.26-.66-.62-.02-.35.25-.71.61-.73h5.63c.42-.02.76.31.74.73v5.63a.65.65 0 0 1-.68.63"/></svg>
